X:1
T:Sing Joyfully
T:Sing Joyfully
T:Arranged for SATB
T:William Byrd *Arr. by CPDL user Shawnk
C:William Byrd (Arr. by Shawn M. Keswani)
%%score [ 1 2 3 4 ]
L:1/8
M:4/4
K:C
V:1 treble nm="Soprano" snm="S."
V:2 treble nm="Alto" snm="A."
V:3 treble-8 nm="Tenor" snm="T."
V:4 bass nm="Bass" snm="B."
V:1
 C2 G3 (FGA) | G4 G2 A2 | c4 (c3 B) | (c3 B A4) | B8 | z6 G2 | A2 c4 (BA | GF E2) D4 | G8 | %9
w: Sing joy- ful- * *|ly un- to|God, God *|our * *|strength,|un-|to God our *|* * * strength,|our|
 G2 G4 c2- | c2 A4 d2- | d2 B2 c3 B | A2 G2 A4 | A4 B2 c2- | c2 B2 A2 G2 | (G2 ^F2) G4- | G4 z4 | %17
w: strength. Sing loud,|* sing loud|* un- to the|God of Ja-|cob, un- to|* the God of|Ja- * cob.||
 G2 G2 B4- | B4 z2 A2 | B2 c4 B2 | A4 A4 | B2 c4 A2 | A4 A2 A2 | FG A4 c2- | cB A4 ^G2 | %25
w: Take the song|* and|bring forth the|tim- brel,|bring forth the|tim- brel, the|plea- sant harp and|* the vi- *|
 A2 A2 GA B2 | AB c2 G2 Bc | (d4 c2) G2 | Bc (d4 c2) | B4 A3 A | A2 A2 cA A2 | A3 A c2 A2 | %32
w: ol, the plea- sant harp|and the vi- ol, and the|vi- * ol,|and the vi- *|ol. Blow the|trum- pet in the new|moon, the trum- pet|
 cA A2 cA A2 | A8 | z4 B3 B | d2 B2 d2 B2 | d2 B2 dB B2 | dB B2 (G4 | ^F4) =F2 FG | A2 d2 (c2 B2 | %40
w: in the new, in the new|moon,|blow the|trum- pet, blow the|trum- pet in the new,|in the new, moon,|* e'vn in the|time ap- point- *|
 A2 GF E4) | F2 FG A2 d2 | (c2 d2 c2 B2) | A6 A2 | G2 c2 B2 G2 | A4 G4- | G2 c2 B2 G2 | A4 G2 G2 | %48
w: * * * ted,|e'vn in the time ap-|point- * * *|ed, and|at, and at our|feast day,|* and at our|feast day, and|
 ^F2 D A2 G (G2- | G^F/E/ F2) G4 | z2 G2 G4 | c3 B (c3 B | A2) A4 (c2- | c2 BA B2) B2 | c4 G3 A | %55
w: at, and at our feast|* * * * day.|For this|is a sta- *|tute for Is-|* * * * ra-|el, and a|
 B2 AB c2 B2 | A4 G2 B2- | BA (A4 ^G2) | A4 z4 | z8 | A3 B c2 Bc | d2 c2 (B4 | A2 c2) G4 | %63
w: law of the God of|Ja- cob, of|* * Ja- *|cob,||and a law of the|God of Ja-|* * cob,|
 AB c2 Bc d2- | dc (c4 B2) | (c4 B4) | z2 G4 G2 | A4 A2 A2 | B3 A G4- | G8 | G8 |] %71
w: and a law of the God|* of Ja- *|cob, *|and a|law of the|God- of Ja-||cob.|
V:2
 z8 | D2 E3 (DEF) | E2 G4 A2- | A2 G4 ^F2 | G4 G3 F | E4 (A2 D2) | (F2 E2 D4) | E4 D4 | E4 D4 | %9
w: |Sing joy- ful- * *|ly un- to|* God our|strength, un- to|God our *|strength, * *|un- to|God our|
 E4 E4 | A4 ^F4 | G4 E2 F2- | F2 G2 ^F2 G2 | (G2 ^F2) G2 G2 | A2 G2 ^F2 D2 | D4 D4 | %16
w: strength. Sing|loud, sing|loud un- to|* the God of|Ja- * cob, un-|to the God of|Ja- cob.|
 D2 D2 B,2 E2- | E2 E2 D4 | z2 (D3 E) ^F2 | G2 E2 A2 (GF | ED E2) F4 | D2 E4 D2 | (D2 ^C2) D4 | %23
w: Take the song, take|* the song,|and * bring|forth the tim- * *|* * * brel,|bring forth the|tim- * brel,|
 D2 FG A2 E2- | E2 F2 E4 | C4 E2 DE | F2 C4 (D2- | D2 F2) (E2 G2- | G2 D2) E4- | E4 C3 C | %30
w: the plea- sant harp, and|* the vi-|ol, the plea- sant|harp and the|* * vi- *|* * ol.|* Blow the|
 F2 F2 EF F2 | F4 FF F2 | F8 | CC C2 C4- | C4 D3 D | G2 D2 DD D2 | G4 GG G2 | G4 B,2 ^C2 | %38
w: trum- pet in the new|moon, in the new|moon,|in the new moon,|* blow the|trump- et in the new|moon, in the new|moon, the new|
 D4 D2 DE | F4 C2 (GF | E2 D2 ^C4) | D4 F2 FG | A2 B2 (A2 GF) | E4 z2 F2 | E2 E2 (E4 | %45
w: moon, e'vn in the|time ap- point- *||ed, e'vn in the|time ap- point- * *|ed, and|at our feast|
 ^F G2 F) G4 | G4 D4 | D4 B,4 | D4 ((D4 | D)C A,2) B,4 | z2 C2 (C4 | E4) F2 F2 | F4 C4 | E2 D4 D2 | %54
w: * * * day,|and at|our feast|day, feast|* * * day.|For this|* is a|sta- tute|of Is- ra-|
 E2 C3 D E2 | DE F3 E E2- | E2 D2 E4 | G2 F2 E4 | C3 D E2 DE | F2 E2 D4 | C4 z2 GA | %61
w: el, and a law|of the God of Ja-|* * cob,|and a law,|and a law of the|God of Ja-|cob, of the|
 B2 A2 (A2 ^G2) | A2 z2 z4 | C3 D E2 DE | F2 E2 (D2 G2- | G2 ^F2) G2 D2- | D2 (C4 B,2) | C4 E3 F | %68
w: God of Ja- *|cob,|and a law of the|God of Ja- *|* * cob, of|* Ja- *|cob, of the|
 (D4 D)C (C2- | C2 B,A, B,4) | C8 |] %71
w: God * of Ja-||cob.|
V:3
 z8 | G2 c3 (Bcd) | c2 c2 e2 f2- | f2 g4 d2- | d cde d2 G2 | A2 c4 B2 | c4 z4 | z2 G2 B2 d2- | %8
w: |Sing joy- ful- * *|ly un- to God,|* sing joy-|* ful- * * ly un-|to God our|strength,|un- to God|
 dc (c4 B2) | c4 c4 | A4 d4 | B4 (G2 A2) | F2 G2 A2 A2 | A4 G4 | (F2 G2) A2 B2 | A4 B4 | %16
w: * * our *|strength. Sing|loud, sing|loud un- *|to the God of|Ja- cob,|the * God of|Ja- cob.|
 G2 G2 G2 c2- | c2 G2 G4- | G2 z2 (^F2 A2) | (G2 c2) e3 d | ^c4 d4 | G2 G2 C2 F2 | (A3 G) ^F4 | %23
w: Take the song, take|* the song,|* and *|bring * forth the|tim- brel,|and bring forth the|tim- * brel,|
 z2 x2 FG A2 | G2 c2 (B4 | A4 G4 | A4) z4 | z4 z2 EF | (GA B4 A2- | A2) ^G2 A3 A | c2 c2 cc c2 | %31
w: plea- sand harp|and the vi-||ol,|and the|vi- * * *|* ol. Blow the|trum- pet in the new|
 A4 F3 F | F4 F4 | FC C2 C4 | GE E2 D4- | D4 G3 G | (G4 D4) | G4 GG G2 | A8 | F2 FG A2 B2 | %40
w: moon, blow the|trum- pet|in the new moon,|in the new moon,|* blow the|trum- *|pet in the new|moon,|e'vn in the time ap-|
 (c2 B2 A4) | A8 | A2 B2 (cd) (ed) | (^cB) A4 d2 | B2 A2 (GF E2 | A4) B4 | G4 (G4- | %47
w: point- * *|ted,|in the time * ap- *|point- * ted, and|at our feast * *|* day,|our feast|
 G^F/E/ F2) G4 | A4 G4 | A4 G4 | z2 E2 E4 | G2 G2 F4 | F4 (A2 F2) | G6 G2 | G4 z4 | z8 | %56
w: * * * * day,|our feast|* day,|For this,|is a sta-|tute of *|Is- ra-|el,||
 A3 B c2 Bc | d3 c B4 | A4 GA B2- | BA (A4 ^G2) | A2 E3 F G2- | G2 E2 E4 | F2 (E3 F) (G2- | %63
w: and a law of the|God of Ja-|cob, of the God|* of Ja- *|cob, of the God|* of Ja-|cob, of * Ja-|
 G2 ^F2) G4 | z2 EF G4 | C3 D E2 DE | F2 E2 (D2 G2) | C8 | D2 G4 E2 | (G3 F D2 G2) | E8 |] %71
w: * * cob,|and a law,|and a law of the|God of Ja- *|cob,|the God of|Ja- * * *|cob.|
V:4
 z8 | z8 | z8 | z4 D,4 | G,4 G,4 | A,4 F,2 G,2 | (A,3 G,) F,2 G,2 | E,2 C,2 G,4 | G,8 | C,2 C,6 | %10
w: |||Sing|joy- ful-|ly un- to|God, * un- to|God our strength,|our|strength. Sing|
 F,4 D,4 | G,4 C,2 F,2- | F,2 E,2 D,2 C,2 | D,4 G,,2 C,2 | %14
w: loud, sing|loud un- to|* the God of|Ja- cob, un-|
"_*A rough edition based on reduction in Frank van Nimwegen version on CPDL. \nCopyright © 2015 by the Choral Public Domain Library (http://www.cpdl.org). \nEdition may be freely distributed, duplicated, performed, or recorded." F,2 G,2 D,2 G,,2 | %15
w: to the God of|
 D,4 G,,4- | G,,4 z4 | C,2 C,2 G,4 | G,,2 G,,2 D,2 D,2 | G,2 A,4 E,2 | A,4 D,4 | G,,2 C,4 D,2 | %22
w: Ja- cob.||Take the song,|take the song and|bring forth the|tim- brel,|bring forth the|
 A,,4 D,4- | D,4 z2 A,,2 | C,3 D, E,2 E,2 | F,G, A,2 E,F, G,2 | D,2 A,,B,, C,2 G,,2 | %27
w: tim- brel,|* the|plea- sant harp, the|plea- sant harp and the vi-|ol, and the vi- ol,|
 G,,2 D,2 C,4 | G,,4 E,4- | E,4 F,3 F, | F,2 F,2 A,F, F,2 | F,4 F,,3 F,, | F,,2 F,,2 F,,F,, F,,2 | %33
w: and the vi-|* ol.|* Blow the|trum- pet in the new|moon, blow the|trum- pet in the new|
 F,,8 | E,C, C,2 G,,3 G,, | G,,2 G,,2 G,,G,, G,,2 | G,,4 G,,3 G,, | G,,2 G,,2 G,E, E,2 | D,8 | %39
w: moon,|in the new moon, the|trum- pet in the new|moon, blow the|trum- pet in the new|moon,|
 D,2 D,E, F,2 G,2 | (A,2 E,2 A,4) | D,4 D,2 D,E, | F,2 G,2 A,2 E,2 | A,,2 A,,B,, C,2 D,2 | %44
w: e'vn in the time ap-|point- * *|ted, e'vn in the|time ap- point- ed,|e'vn in the time ap-|
 E,2 A,,2 E,4 | D,4 G,4 | E,2 C,2 G,4 | D,4 G,4 | D,2 D,2 (B,,2 G,,2) | D,4 G,,4 | z2 C,2 C,4 | %51
w: point- * *|ted, and|at our feast|day, and|at our feast *|* day.|For this|
 C,2 C,2 F,,4 | F,,4 F,4 | C,2 G,4 G,,2 | C,4 E,3 F, | G,2 F,G, A,2 G,2 | F,4 E,2 E,2 | D,4 E,4 | %58
w: is a sta-|tute for|Is- * ra-|el, and a|law of the God of|Ja- cob, of|Ja- cob,|
 A,,3 B,, C,2 B,,C, | D,2 C,2 B,,4 | A,,4 A,,2 (G,,2- | G,,2 A,,2) [E,,E,]4 | z2 A,,B,, C,2 B,,2 | %63
w: and a law of the|God of Ja-|cob, of Ja-|* * cob,|of the God of|
 A,,4 G,,4 | F,,2 C,2 G,,3 G,, | A,,4 G,,4 | z4 G,,4 | (F,,3 G,,) A,,2 A,,2 | G,,4 C,4 | G,,8 | %70
w: Ja- cob,|of the God of|Ja- cob,|a|law * of the|God of|Ja-|
 C,8 |] %71
w: cob.|

